public/images/sponsors/Latitude.svg

<svg fill="none" height="86" viewBox="0 0 172 86" width="172" xmlns="http://www.w3.org/2000/svg" xmlns:xlink="http://www.w3.org/1999/xlink"><clipPath id="a"><path d="m0 29h172v28.3176h-172z"/></clipPath><g clip-path="url(#a)"><path clip-rule="evenodd" d="m133.363 43.6562c0 2.2318-.885 3.9958-3.448 3.9958s-3.448-1.764-3.448-3.9958v-6.7846h-1.759v7.0478c0 2.385.946 5.4914 5.207 5.4914s5.207-3.1064 5.207-5.4903v-7.0489h-1.76v6.7846zm19.956-.5863c0-2.8443-2.136-4.429-4.824-4.429h-3.185v8.858h3.185c2.688 0 4.824-1.5836 4.824-4.429zm1.783 0c0 3.9812-2.904 6.1983-6.485 6.1983h-5.066v-12.3955h5.065c3.582 0 6.485 2.2171 6.485 6.1983zm-85.2805.8852-2.3136-5.3142-2.3136 5.3142zm-1.4337-7.0835 5.5932 12.3966h-1.8459l-1.5438-3.5428h-6.1668l-1.5417 3.5439h-1.8123l5.5753-12.3977zm10.4669 1.7693h4.2129v10.6284h1.7588v-10.6284h4.213v-1.7693h-10.1847zm27.7993 0h4.213v10.6284h1.758v-10.6284h4.213v-1.7693h-10.184zm-9.688 10.6284h1.7599v-12.3977h-1.7599v12.3966zm74.782-10.6284v-1.7693h-8.935v12.3966h8.935v-1.7693h-7.177v-3.5438h6.175v-1.7693h-6.175v-3.5449zm-124.1543-1.7693h-1.7599v12.3966h8.9367v-1.7693h-7.1768zm-42.63926-7.8711h-4.95444v28.3171h28.3171v-4.9555h-23.36161v-23.3616zm13.09616 4.9555c1.3681 0 2.4772-1.1091 2.4772-2.4772s-1.1091-2.4772-2.4772-2.4772c-1.3682 0-2.4773 1.1091-2.4773 2.4772s1.1091 2.4772 2.4773 2.4772zm7.7882 10.62c-1.3681 0-2.4772 1.1091-2.4772 2.4772s1.1091 2.4772 2.4772 2.4772 2.4772-1.1091 2.4772-2.4772-1.1091-2.4772-2.4772-2.4772zm-15.5733-10.62c1.3684 0 2.4777-1.1093 2.4777-2.4777 0-1.3685-1.1093-2.4778-2.4777-2.4778-1.36846 0-2.47778 1.1093-2.47778 2.4778 0 1.3684 1.10932 2.4777 2.47778 2.4777zm15.5744 2.8317c-.8974-.0184-1.7346.4497-2.1887 1.2239s-.4541 1.7335 0 2.5077 1.2913 1.2424 2.1887 1.2239c1.3485-.0277 2.4272-1.1289 2.4272-2.4777 0-1.3489-1.0787-2.45-2.4272-2.4778zm2.4772-5.31c0 1.3685-1.1094 2.4778-2.4778 2.4778s-2.4777-1.1093-2.4777-2.4778c0-1.3684 1.1093-2.4777 2.4777-2.4777s2.4778 1.1093 2.4778 2.4777z" fill="#0046aa" fill-rule="evenodd"/></g></svg>

<svg width="172" height="86" viewBox="0 0 172 86" fill="none" xmlns="http://www.w3.org/2000/svg">
<g clip-path="url(#clip0)">
<path fill-rule="evenodd" clip-rule="evenodd" d="M133.363 43.6562C133.363 45.888 132.478 47.652 129.915 47.652C127.352 47.652 126.467 45.888 126.467 43.6562V36.8716H124.708V43.9194C124.708 46.3044 125.654 49.4108 129.915 49.4108C134.176 49.4108 135.122 46.3044 135.122 43.9205V36.8716H133.362V43.6562H133.363ZM153.319 43.0699C153.319 40.2256 151.183 38.6409 148.495 38.6409H145.31V47.4989H148.495C151.183 47.4989 153.319 45.9153 153.319 43.0699ZM155.102 43.0699C155.102 47.0511 152.198 49.2682 148.617 49.2682H143.551V36.8727H148.616C152.198 36.8727 155.101 39.0898 155.101 43.071L155.102 43.0699ZM69.8215 43.9551L67.5079 38.6409L65.1943 43.9551H69.8215ZM68.3878 36.8716L73.981 49.2682H72.1351L70.5913 45.7254H64.4245L62.8828 49.2693H61.0705L66.6458 36.8716H68.3878ZM78.8547 38.6409H83.0676V49.2693H84.8264V38.6409H89.0394V36.8716H78.8547V38.6409ZM106.654 38.6409H110.867V49.2693H112.625V38.6409H116.838V36.8716H106.654V38.6409ZM96.966 49.2693H98.7259V36.8716H96.966V49.2682V49.2693ZM171.748 38.6409V36.8716H162.813V49.2682H171.748V47.4989H164.571V43.9551H170.746V42.1858H164.571V38.6409H171.748ZM47.5937 36.8716H45.8338V49.2682H54.7705V47.4989H47.5937V36.8716ZM4.95444 29.0005H0V57.3176H28.3171V52.3621H4.95549V29.0005H4.95444ZM18.0506 33.956C19.4187 33.956 20.5278 32.8469 20.5278 31.4788C20.5278 30.1107 19.4187 29.0016 18.0506 29.0016C16.6824 29.0016 15.5733 30.1107 15.5733 31.4788C15.5733 32.8469 16.6824 33.956 18.0506 33.956ZM25.8388 44.576C24.4707 44.576 23.3616 45.6851 23.3616 47.0532C23.3616 48.4213 24.4707 49.5304 25.8388 49.5304C27.2069 49.5304 28.316 48.4213 28.316 47.0532C28.316 45.6851 27.2069 44.576 25.8388 44.576ZM10.2655 33.956C11.6339 33.956 12.7432 32.8467 12.7432 31.4783C12.7432 30.1098 11.6339 29.0005 10.2655 29.0005C8.89704 29.0005 7.78772 30.1098 7.78772 31.4783C7.78772 32.8467 8.89704 33.956 10.2655 33.956ZM25.8399 36.7877C24.9425 36.7693 24.1053 37.2374 23.6512 38.0116C23.1971 38.7858 23.1971 39.7451 23.6512 40.5193C24.1053 41.2935 24.9425 41.7617 25.8399 41.7432C27.1884 41.7155 28.2671 40.6143 28.2671 39.2655C28.2671 37.9166 27.1884 36.8155 25.8399 36.7877ZM28.3171 31.4777C28.3171 32.8462 27.2077 33.9555 25.8393 33.9555C24.4709 33.9555 23.3616 32.8462 23.3616 31.4777C23.3616 30.1093 24.4709 29 25.8393 29C27.2077 29 28.3171 30.1093 28.3171 31.4777Z" fill="#0046AA"/>
</g>
<defs>
<clipPath id="clip0">
<rect width="172" height="28.3176" fill="white" transform="translate(0 29)"/>
</clipPath>
</defs>
</svg>
